packages/core/src/svgs/tokens/branded/EARN.svg

<svg width="24" height="24" viewBox="0 0 24 24" fill="none" xmlns="http://www.w3.org/2000/svg">
<path d="M6.16675 14.2334V10.7445L6.63342 10.3556V10.8889H6.45564L6.7223 12.8222V14.7112L6.16675 14.2334Z" fill="#181B1E"/>
<path d="M5.88916 10.6111L7.00027 9.77771V11.1334H6.77804L7.00027 12.8V15.3111L5.88916 14.3556V10.6111ZM6.45582 10.8889H6.6336V10.361L6.16693 10.7445V14.2333L6.72249 14.7112V12.8222L6.45582 10.8889Z" fill="#181B1E"/>
<path d="M17.8334 14.2334V10.7445L17.3668 10.3556V10.8889H17.5445L17.2778 12.8222V14.7112L17.8334 14.2334Z" fill="#181B1E"/>
<path d="M18.1107 10.6111L16.9995 9.77771V11.1334H17.2218L16.9995 12.8V15.3111L18.1107 14.3556V10.6111ZM17.544 10.8889H17.3662V10.361L17.8329 10.7445V14.2333L17.2773 14.7112V12.8222L17.544 10.8889Z" fill="#181B1E"/>
<path d="M10.7058 9.68891C10.867 9.80558 11.1392 10.0499 11.4003 10.2833C11.6336 10.4889 11.8559 10.6889 12.0003 10.8C12.1447 10.6889 12.3669 10.4889 12.6002 10.2833C12.8246 10.0769 13.0563 9.87869 13.2948 9.68891C14.2604 10.3006 15.3742 10.6386 16.517 10.6667H16.5781C16.5581 9.79858 16.3039 8.95207 15.8423 8.21664C15.3807 7.48122 14.7289 6.88423 13.9559 6.48887L12.9225 6.34999L13.4059 4.23888C17.1614 4.88888 20.017 8.07221 20.017 11.9112C20.017 15.4112 17.6504 18.3611 14.3947 19.3555C14.8826 18.2044 15.6298 17.1815 16.5781 16.3667C15.8669 13.4388 16.4837 11.9222 16.5781 11.7C15.421 11.6993 14.2853 11.3886 13.2892 10.8L12.0003 11.9056L10.7114 10.8C10.2948 11.0889 9.04474 11.6722 7.42251 11.6944C7.51696 11.9222 8.13362 13.4388 7.42251 16.3611C7.74473 16.6056 8.8114 17.5834 9.6058 19.35C7.99632 18.8771 6.58147 17.8991 5.57013 16.5607C4.55878 15.2223 4.00454 13.5941 3.98918 11.9166C3.98918 8.07777 6.83918 4.88888 10.6003 4.24443L11.0781 6.34999L10.0392 6.48887C9.26797 6.88453 8.61783 7.48097 8.15729 8.21528C7.69677 8.94958 7.44291 9.79456 7.42251 10.6611H7.48918C7.84474 10.6777 9.18918 10.6055 10.7058 9.68891ZM10.0836 20.6223C10.1558 20.8611 10.2226 21.1111 10.2836 21.3722C10.3781 21.2611 10.4948 21.0501 10.6059 20.7166C11.5304 20.8541 12.4702 20.8541 13.3947 20.7166C13.5058 21.0501 13.6225 21.2611 13.717 21.3722C13.7725 21.1167 13.8447 20.8611 13.917 20.6223C18.0558 19.7667 21.1558 16.1944 21.1558 11.9112C21.1558 7.14444 17.3004 3.24998 12.4558 3.02221L12.0003 2.45554L11.5448 3.02221C6.70029 3.24998 2.84473 7.14444 2.84473 11.9112C2.84473 16.1889 5.94473 19.7667 10.0836 20.6223ZM13.1392 19.6278C12.3835 19.7324 11.617 19.7324 10.8614 19.6278C11.0614 18.4611 11.1392 16.6945 10.8558 14.1388H10.8114C10.4614 14.1444 8.90585 14.1611 8.31141 12.5167C8.55467 12.4693 8.80312 12.4544 9.0503 12.4722C9.63924 12.4722 10.3892 12.4722 10.717 12.75C11.2281 13.1945 11.6003 14.5833 11.4003 16.1944L12.0003 16.8222L12.6002 16.1944C12.4004 14.5833 12.7725 13.1945 13.2892 12.75C13.6225 12.4556 14.4503 12.461 15.0448 12.4722H15.1503C15.4114 12.4722 15.6114 12.4945 15.6948 12.5167C15.0947 14.1611 13.5392 14.1444 13.1947 14.1388H13.1392C12.8559 16.6945 12.9337 18.4667 13.1281 19.6278H13.1392Z" fill="#181B1E"/>
<path fill-rule="evenodd" clip-rule="evenodd" d="M11.2112 10.4889L10.6779 10.0278C9.69221 10.6078 8.56593 10.9056 7.42233 10.8889H7.13345V10.6111C7.13345 9.3889 7.60011 8.4389 8.17233 7.6889C8.6332 7.07078 9.2351 6.57174 9.92788 6.23334L9.96119 6.21667L10.7334 6.11668L10.378 4.55001C6.88899 5.27223 4.22233 8.30001 4.22233 11.9112C4.22233 15.0445 6.24455 17.7278 9.04455 18.8556C8.60088 17.9896 7.99116 17.2194 7.25011 16.5889L7.10011 16.4778L7.14456 16.3001C7.83345 13.4556 7.23899 12 7.15567 11.8055L7.00011 11.4222L7.41678 11.4166C8.51582 11.4177 9.59538 11.1261 10.5445 10.5722L10.7334 10.4444L12.0001 11.5333L13.2667 10.4444L13.4556 10.5722C13.8279 10.8333 15.0167 11.3945 16.5835 11.4166L17.0001 11.4222L16.8445 11.8V11.8055C16.7612 12 16.1668 13.4556 16.8557 16.3056L16.9001 16.4778L16.7502 16.5889C16.5057 16.7723 15.6834 17.5166 14.9557 18.8556C17.7557 17.7278 19.7779 15.0445 19.7779 11.9112C19.7779 8.30557 17.1112 5.27223 13.6223 4.55001L13.2667 6.11668L14.039 6.21667L14.0724 6.23334C14.7651 6.57174 15.367 7.07078 15.8278 7.6889C16.4949 8.51737 16.8611 9.54751 16.8668 10.6111V10.8889H16.5224C16.1335 10.9055 14.8223 10.8833 13.3224 10.0278L12.7891 10.4889L12.7835 10.5C12.5612 10.6945 12.3278 10.9001 12.1779 11.0167L12.0001 11.1556L11.8223 11.0167C11.6723 10.9055 11.439 10.6945 11.2168 10.5L11.2112 10.4889ZM11.4001 10.2833C11.6334 10.4889 11.8557 10.6889 12.0001 10.8C12.1445 10.6889 12.3667 10.4889 12.6001 10.2833C12.8613 10.05 13.1335 9.8056 13.2946 9.68894C14.2661 10.2806 15.3793 10.5992 16.5168 10.6111H16.5779L16.5723 10.3333C16.4446 8.38891 14.7946 6.85001 13.9612 6.4889L12.9223 6.35001L13.4057 4.22223C17.1612 4.86667 20.0667 8.07779 20.0667 11.9112C20.0667 15.2722 17.8279 18.1334 14.7668 19.2277L14.3945 19.35L14.5612 19.0056C15.0385 17.9928 15.7261 17.0933 16.5779 16.3667C16.0057 14 16.3001 12.5556 16.4779 11.9722L16.5779 11.6944H16.5667C16.4668 11.6944 16.3723 11.6944 16.2779 11.6833C15.2238 11.641 14.1967 11.3376 13.289 10.8L12.0001 11.9056L10.7112 10.8C9.71658 11.3915 8.57954 11.7008 7.42233 11.6944L7.52234 11.9722C7.70011 12.5556 7.99455 14 7.42233 16.3611C8.37684 17.1701 9.12522 18.1947 9.60562 19.35L9.23345 19.2277C6.17233 18.1334 3.93343 15.2722 3.93343 11.9166C3.93343 8.07779 6.83899 4.86667 10.6001 4.22223L11.078 6.35001L10.039 6.4889C9.20567 6.85001 7.55566 8.31113 7.42789 10.3333L7.42233 10.6111H7.70566C8.24456 10.5834 9.41117 10.4667 10.7057 9.68894C10.8668 9.8056 11.139 10.05 11.4001 10.2833ZM10.1889 20.7833L10.0834 20.4167C5.94455 19.5611 2.84454 16.1944 2.84454 11.9166C2.84454 7.14446 6.70011 3.25001 11.5446 3.02223L12.0001 2.45556L12.4557 3.02223C17.3002 3.25001 21.1556 7.14446 21.1556 11.9112C21.1556 16.189 18.0557 19.5611 13.9168 20.4111C13.8409 20.6604 13.7741 20.9124 13.7168 21.1667C13.6326 21.056 13.5635 20.9346 13.5112 20.8056C13.4697 20.7072 13.4327 20.6071 13.4001 20.5056C12.4737 20.6434 11.532 20.6434 10.6057 20.5056L10.4946 20.8056C10.4168 20.9723 10.3445 21.0944 10.2834 21.1667L10.1889 20.7779V20.7833ZM10.8002 20.8167C10.7001 21.0501 10.6001 21.2278 10.5056 21.3445L10.1335 22L10.0057 21.2222C9.96119 21.0278 9.91128 20.8333 9.85567 20.65C5.67233 19.7056 2.55566 16.2667 2.55566 11.9112C2.55566 7.0389 6.46121 3.05 11.4001 2.74445L12.0001 2L12.6001 2.75001C17.539 3.05 21.4446 7.0389 21.4446 11.9166C21.4446 16.2667 18.3279 19.7056 14.1446 20.65C14.089 20.8389 14.039 21.0278 13.9946 21.2278L13.8668 22L13.4945 21.3445C13.4001 21.2278 13.3001 21.0501 13.2057 20.8167C12.405 20.9158 11.5952 20.9158 10.7946 20.8167H10.8002ZM10.8556 14.1389C11.0944 15.9606 11.0982 17.8052 10.8668 19.6278C11.6188 19.7323 12.3815 19.7323 13.1335 19.6278L13.0946 19.35C12.9012 17.6172 12.9199 15.8672 13.1501 14.1389H13.189C13.5224 14.1389 14.9224 14.1612 15.5835 12.7778C15.6224 12.6944 15.6613 12.6112 15.6946 12.5167C15.514 12.4922 15.3323 12.4773 15.1501 12.4722H15.0446C14.4501 12.4611 13.6279 12.4556 13.289 12.75C12.7723 13.1945 12.4002 14.5834 12.6001 16.1944C12.4016 16.4052 12.2017 16.6144 12.0001 16.8222C11.7995 16.6135 11.5995 16.4043 11.4001 16.1944C11.6001 14.5834 11.2279 13.1945 10.7112 12.75C10.389 12.4722 9.63906 12.4722 9.05011 12.4722H8.92234C8.71794 12.4752 8.5139 12.4901 8.31122 12.5167C8.339 12.6056 8.37789 12.6944 8.41678 12.7778C9.07789 14.1612 10.4779 14.1444 10.8057 14.1389H10.8612H10.8556ZM8.72233 12.75C9.32234 13.8778 10.489 13.8611 10.8057 13.8611H10.989C10.9175 13.5229 10.7563 13.2101 10.5224 12.9556C10.4334 12.8778 10.2446 12.8166 9.95017 12.7778C9.6668 12.75 9.35012 12.75 9.05011 12.75H8.72233ZM11.3167 16.5167C11.3502 17.7001 11.2946 18.6444 11.1946 19.3889C11.7302 19.4429 12.27 19.4429 12.8057 19.3889C12.6854 18.4366 12.6444 17.4758 12.6834 16.5167L12.2112 17.0166L12.0001 17.2334L11.789 17.0111L11.3167 16.5167ZM13.0112 13.8611C13.1391 13.4056 13.3168 13.0944 13.4779 12.9556C13.5723 12.8723 13.7835 12.8056 14.1001 12.7722C14.4057 12.7389 14.739 12.7444 15.0446 12.75H15.278C14.6779 13.8778 13.5112 13.8611 13.1945 13.8611H13.0112Z" fill="#181B1E"/>
</svg>

<svg xmlns="http://www.w3.org/2000/svg" width="24" height="24" fill="none" viewBox="0 0 24 24">
    <path fill="#181B1E" d="M6.167 14.233v-3.488l.466-.39v.534h-.177l.266 1.933v1.89z"/>
    <path fill="#181B1E" d="M5.89 10.611 7 9.778v1.355h-.222L7 12.8v2.511l-1.11-.955zm.566.278h.178v-.528l-.467.383v3.49l.555.477v-1.889zm11.377 3.344v-3.488l-.466-.39v.534h.177l-.266 1.933v1.89z"/>
    <path fill="#181B1E" d="M18.11 10.611 17 9.778v1.355h.222l-.223 1.667v2.511l1.112-.955zm-.566.278h-.178v-.528l.467.383v3.49l-.556.477v-1.889z"/>
    <path fill="#181B1E" d="M10.706 9.689c.161.117.433.36.694.594.234.206.456.406.6.517.145-.111.367-.311.6-.517q.337-.309.695-.594c.965.612 2.08.95 3.222.978h.061a4.82 4.82 0 0 0-2.622-4.178l-1.033-.139.483-2.111c3.755.65 6.611 3.833 6.611 7.672 0 3.5-2.367 6.45-5.622 7.445a8.1 8.1 0 0 1 2.183-2.99c-.711-2.927-.094-4.444 0-4.666a6.47 6.47 0 0 1-3.289-.9L12 11.906 10.711 10.8c-.416.289-1.666.872-3.288.894.094.228.71 1.745 0 4.667.322.245 1.388 1.222 2.183 2.989a7.82 7.82 0 0 1-5.617-7.433c0-3.84 2.85-7.028 6.611-7.673l.478 2.106-1.039.139a4.82 4.82 0 0 0-2.616 4.172h.066c.356.017 1.7-.056 3.217-.972m-.622 10.933q.108.36.2.75c.094-.11.21-.322.322-.655a9.5 9.5 0 0 0 2.789 0c.11.333.228.544.322.655a10 10 0 0 1 .2-.75c4.139-.855 7.239-4.428 7.239-8.71 0-4.768-3.856-8.662-8.7-8.89L12 2.456l-.455.566c-4.845.228-8.7 4.122-8.7 8.89 0 4.277 3.1 7.855 7.239 8.71m3.055-.994a8.3 8.3 0 0 1-2.278 0c.2-1.167.278-2.933-.005-5.49h-.045c-.35.006-1.905.023-2.5-1.621q.367-.072.74-.045c.588 0 1.338 0 1.666.278.511.444.883 1.833.683 3.444l.6.628.6-.628c-.2-1.61.173-3 .69-3.444.333-.294 1.16-.289 1.755-.278h.105c.261 0 .461.023.545.045-.6 1.644-2.156 1.627-2.5 1.622h-.056c-.283 2.556-.205 4.328-.01 5.489z"/>
    <path fill="#181B1E" fill-rule="evenodd" d="m11.211 10.489-.533-.461a6.24 6.24 0 0 1-3.256.86h-.289v-.277c0-1.222.467-2.172 1.04-2.922a4.84 4.84 0 0 1 1.755-1.456l.033-.016.772-.1-.355-1.567c-3.489.722-6.156 3.75-6.156 7.361 0 3.133 2.023 5.817 4.823 6.945a7.4 7.4 0 0 0-1.795-2.267l-.15-.111.045-.178c.688-2.844.094-4.3.01-4.494L7 11.422l.417-.005a6.2 6.2 0 0 0 3.127-.845l.19-.128L12 11.534l1.267-1.09.189.128c.372.261 1.56.823 3.128.845l.416.005-.155.378v.005c-.084.195-.678 1.65.01 4.5l.045.173-.15.11c-.244.184-1.067.929-1.794 2.268 2.8-1.128 4.822-3.812 4.822-6.945 0-3.605-2.667-6.639-6.156-7.361l-.355 1.567.772.1.033.016a4.84 4.84 0 0 1 1.756 1.456 4.7 4.7 0 0 1 1.039 2.922v.278h-.345c-.388.017-1.7-.006-3.2-.861l-.533.46-.005.012c-.223.194-.456.4-.606.517l-.178.139-.178-.14c-.15-.11-.383-.322-.605-.516zm.19-.206c.232.206.455.406.6.517.144-.111.366-.311.6-.517.26-.233.532-.477.694-.594.971.592 2.084.91 3.222.922h.06l-.005-.278c-.127-1.944-1.777-3.483-2.61-3.844l-1.04-.139.484-2.128c3.755.645 6.66 3.856 6.66 7.69 0 3.36-2.238 6.221-5.3 7.316l-.371.122.166-.344a7.9 7.9 0 0 1 2.017-2.64c-.572-2.366-.278-3.81-.1-4.394l.1-.278h-.011c-.1 0-.195 0-.29-.01a6.4 6.4 0 0 1-2.988-.884L12 11.906 10.711 10.8a6.37 6.37 0 0 1-3.289.894l.1.278c.178.584.473 2.028-.1 4.39a7.9 7.9 0 0 1 2.184 2.988l-.373-.122c-3.06-1.095-5.3-3.956-5.3-7.311 0-3.84 2.906-7.05 6.667-7.695l.478 2.128-1.039.139c-.833.361-2.483 1.822-2.611 3.844l-.006.278h.284a6.4 6.4 0 0 0 3-.922c.16.117.433.361.694.594m-1.212 10.5-.106-.366c-4.138-.856-7.238-4.223-7.238-8.5 0-4.773 3.855-8.667 8.7-8.895L12 2.456l.456.566c4.844.228 8.7 4.122 8.7 8.89 0 4.277-3.1 7.65-7.24 8.5q-.113.372-.2.755a1.6 1.6 0 0 1-.205-.361 4 4 0 0 1-.11-.3 9.5 9.5 0 0 1-2.795 0l-.111.3q-.118.25-.212.36l-.094-.388zm.611.034q-.151.35-.294.527l-.373.656-.127-.778a9 9 0 0 0-.15-.572c-4.184-.944-7.3-4.383-7.3-8.739 0-4.872 3.905-8.861 8.844-9.167L12 2l.6.75c4.939.3 8.845 4.289 8.845 9.167 0 4.35-3.117 7.789-7.3 8.733a9 9 0 0 0-.15.578l-.128.772-.373-.655a2.1 2.1 0 0 1-.288-.528 9.8 9.8 0 0 1-2.411 0zm.056-6.678c.238 1.822.242 3.666.01 5.489a8.2 8.2 0 0 0 2.268 0l-.04-.278a21.5 21.5 0 0 1 .056-5.211h.039c.333 0 1.733.022 2.395-1.361.038-.084.077-.167.11-.261a5 5 0 0 0-.544-.045h-.105c-.595-.01-1.417-.016-1.756.278-.517.444-.889 1.833-.689 3.444q-.297.316-.6.628l-.6-.628c.2-1.61-.172-3-.689-3.444-.322-.278-1.072-.278-1.66-.278h-.129a5 5 0 0 0-.61.045c.027.089.066.177.105.26.66 1.384 2.06 1.367 2.389 1.362h.055zM8.722 12.75c.6 1.128 1.767 1.111 2.084 1.111h.183a1.93 1.93 0 0 0-.467-.905c-.089-.078-.277-.14-.572-.178-.283-.028-.6-.028-.9-.028zm2.595 3.767c.033 1.183-.022 2.127-.122 2.872a8 8 0 0 0 1.61 0 17.3 17.3 0 0 1-.122-2.872l-.472.5-.21.216-.212-.222zm1.694-2.656c.128-.455.306-.767.467-.905.094-.084.306-.15.622-.184.306-.033.639-.028.945-.022h.233c-.6 1.128-1.767 1.111-2.084 1.111z" clip-rule="evenodd"/>
</svg>
